X:1
T:The Lord, the universal King
T:The Lord, the universal King (William Thorn)
C:William Thorn
Z:p10, Twenty Original
Z:Sacred Melodies,
Z:London: 1836
%%score [ ( 1 2 ) ( 3 4 ) 5 6 ]
L:1/8
M:3/2
K:F
V:1 treble nm="Soprano" snm="S."
V:2 treble 
V:3 treble nm="Alto" snm="A."
V:4 treble 
V:5 treble-8 transpose=-12 nm="Tenor" snm="T."
V:6 bass nm="Bass" snm="B."
V:1
"^Andante" c4 | (B4 A4) c4 | (F6 G2) A4 | D8 E4 | F8 c4 | c4 d4 e4 | (f4 c4) (c2 B2) | A8 G4 | %8
w: ||||||||
w: ||||||||
w: ||||||||
 F8 || c4 | (B4 A4) c4 | (F6 G2) A4 | D8 E4 | F8 A4 | (G4 c4) e4 | (A4 f4) e4 | (d4 c4) =B4 | %17
w: |Let|ev- * ’ry|crea- * ture|joint- ly|bless The|migh- * ty|Lord; _ and|thou, _ my|
w: |The|Lord, _ the|u- * ni-|ver- sal|King, In|heav’n _ has|fix’d _ his|lof- * ty|
w: |Ye|that _ his|just _ com-|mands o-|bey, And|hear _ and|do _ his|sac- * red|
 c8 c4 | (c2 A2 d2 c2) (B2 A2) | B8 B4 | (B2 G2 c2 B2) (A2 G2) | A8 c4 | (c4 d4) e4 | %23
w: heart, With|grate- * * * ful _|joy thy|thanks _ _ _ ex- *|press, And|in _ this|
w: throne; To|him, _ _ _ ye _|an- gels,|prai- * * * ses _|sing, In|whose _ great|
w: will: Ye|hosts _ _ _ of _|his, this|tri- * * * bute _|pay, Who|still _ what|
 f8 (3(F2 A2 c2) | (c4 B4) A4 | (A4 G4) c4 | (c2 A2 d2 c2) (B2 A2) | B8 B4 | %28
w: con- cert _ _|bear _ thy|part, _ With|grate- * * * ful _|joy thy|
w: strength his _ _|pow’r _ is|shown, _ To|him, _ _ _ ye _|an- gels,|
w: he or- * *|dains _ ful-|fil, _ Ye|hosts _ _ _ of _|his, this|
 (B2 G2 c2 B2) (A2 G2) | A8 c4 | (c4 d4) e4 | (f4 c4) (c2 B2) | A8 G4 | F8 || c4 | %35
w: thanks _ _ _ ex- *|press, And|in _ this|con- * cert _|bear thy|part.||
w: prai- * * * ses _|sing, In|whose _ great|strength _ his _|pow’r is|shown.||
w: tri- * * * bute _|pay, Who|still _ what|he _ or- *|dains ful-|fil.||
 c2 A2 B2 c2 d2 e2 | f4 c4 d4 | A8 G4 | F8 |] %39
w: ||||
w: ||||
w: ||||
V:2
 x4 | x12 | x12 | x12 | x12 | x12 | x12 | x8 x4 | x8 || x4 | x12 | x12 | x12 | x12 | x12 | x12 | %16
 x12 | x12 | x12 | x12 | x12 | x12 | x12 | x12 | x12 | x12 | x12 | x12 | x12 | x12 | x12 | x12 | %32
 x12 | x8 || x4 | x12 | x12 | x8 E4 | x8 |] %39
V:3
 A4 | (G4 F4) A4 | (C6 E2) F4 | C4 B,8 | A,8 A4 | A4 B4 G4 | A8 G4 | F8 E4 | [A,F]8 || A4 | %10
w: |||||||||Let|
w: |||||||||The|
w: |||||||||Ye|
 (G4 F4) A4 | (F6 E2) F4 | D8 C4 | C8 F4 | G8 G4 | F4 G8 | (A4 G4) (G2 F2) | E8 A4 | %18
w: ev- * ’ry|crea- * ture|joint- ly|bless The|migh- ty|Lord; and|thou, _ my _|heart, With|
w: Lord, _ the|u- * ni-|ver- sal|King, In|heav’n has|fix’d his|lof- * ty _|throne; To|
w: that _ his|just _ com-|mands o-|bey, And|hear and|do his|sac- * red _|will: Ye|
 (A2 F2 B2 A2) (G2 ^F2) | G8 (G2 F2) | (E2 G2 A2 G2) (F2 E2) | F8 A4 | (A4 B4) G4 | F8 C4 | E8 F4 | %25
w: grate- * * * ful _|joy thy _|thanks _ _ _ ex- *|press, And|in _ this|con- cert|bear thy|
w: him, _ _ _ ye _|an- gels, _|prai- * * * ses _|sing, In|whose _ great|strength his|pow’r is|
w: hosts _ _ _ of _|his, this _|tri- * * * bute _|pay, Who|still _ what|he or-|dains ful-|
 (F4 E4) A4 | (A2 F2 B2 A2) (G2 ^F2) | G8 (G2 F2) | (E2 G2 A2 G2) (F2 E2) | F8 F4 | F8 C4 | %31
w: part, _ With|grate- * * * ful _|joy thy _|thanks _ _ _ ex- *|press, And|in this|
w: shown, _ To|him, _ _ _ ye _|an- gels, _|prai- * * * ses _|sing, In|whose great|
w: fil, _ Ye|hosts _ _ _ of _|his, this _|tri- * * * bute _|pay, Who|still what|
 (C4 F4) G4 | F8 E4 | F8 || A4 | A2 F2 G2 A2 B2 G2 | A4 F4 F4 | F4 C4 B,4 | [A,C]8 |] %39
w: con- * cert|bear thy|part.||||||
w: strength _ his|pow’r is|shown.||||||
w: he _ or-|dains ful-|fil.||||||
V:4
 x4 | x12 | x12 | x12 | x12 | x12 | x8 D4 | C8 C2 B,2 | x8 || x4 | x12 | x12 | x12 | x12 | x12 | %15
 x12 | x12 | x12 | x12 | x12 | x12 | x12 | x12 | x12 | x12 | x12 | x12 | x12 | x12 | x12 | x12 | %31
 x12 | x12 | x8 || x4 | x12 | x12 | x12 | x8 |] %39
V:5
 z4 | z12 | z12 | z12 | z12 | z12 | z12 | z12 | z8 || c4 | c8 c4 | (c6 B2) A4 | c4 B8 | A8 c4 | %14
w: |||||||||Let|ev- ’ry|crea- * ture|joint- ly|bless The|
w: |||||||||The|Lord, the|u- * ni-|ver- sal|King, In|
w: |||||||||Ye|that his|just _ com-|mands o-|bey, And|
 c8 c4 | (A4 =B4) c4 | (f4 e4) d4 | c8 z4 | z12 | z12 | z12 | z12 | z12 | z12 | z12 | z8 c4 | %26
w: migh- ty|Lord; _ and|thou, _ my|heart,||||||||With|
w: heav’n has|fix’d _ his|lof- * ty|throne;||||||||To|
w: hear and|do _ his|sac- * red|will:||||||||Ye|
 (c4 B2 c2) d4 | d8 c4 | c8 c4 | c8 A4 | (A4 B4) G4 | (A4 c4) d4 | c8 (c2 B2) | A8 || z4 | z12 | %36
w: grate- * * ful|joy thy|thanks ex-|press, And|in _ this|con- * cert|bear thy _|part.|||
w: him, _ _ ye|an- gels,|prai- ses|sing, In|whose _ great|strength _ his|pow’r is _|shown.|||
w: hosts _ _ of|his, this|tri- bute|pay, Who|still _ what|he _ or-|dains ful- *|fil.|||
 z12 | z12 | z8 |] %39
w: |||
w: |||
w: |||
V:6
 F,4 | F,8 F,4 | (A,6 G,2) F,4 | (B,,4 G,,4) C,4 | F,8 F,4 | F,12 | F,4 A,,4 B,,4 | C,8 C,4 | %8
w: ||||||||
w: ||||||||
w: ||||||||
 F,,8 || F,4 | F,8 F,4 | (A,6 G,2) F,4 | (B,,4 G,,4) C,4 | F,8 F,4 | E,8 C,4 | (F,4 D,4) C,4 | %16
w: |Let|ev- ’ry|crea- * ture|joint- * ly|bless The|migh- ty|Lord; _ and|
w: |The|Lord, the|u- * ni-|ver- * sal|King, In|heav’n has|fix’d _ his|
w: |Ye|that his|just _ com-|mands _ o-|bey, And|hear and|do _ his|
 (F,4 G,4) G,4 | C,8 z4 |"^[Inst.]" F,8 D,4 | G,2 G,,2 G,2 F,2 E,2 D,2 | C,8 C,4 | %21
w: thou, _ my|heart,||||
w: lof- * ty|throne;||||
w: sac- * red|will:||||
 F,2 A,2 C2 B,2 A,2 G,2 | F,8 C,4 | D,8 A,,4 | G,,4 G,4 F,4 |"^Voice" C,8 F,4 | F,8 D,4 | %27
w: ||||* With|grate- ful|
w: ||||* To|him, ye|
w: ||||* Ye|hosts of|
 (G,6 F,2) (E,2 D,2) | C,8 C,4 | F,8 F,4 | F,8 F,4 | (F,4 A,,4) B,,4 | C,8 C,4 | [F,,F,]8 || %34
w: joy _ thy _|thanks ex-|press, And|in this|con- * cert|bear thy|part.|
w: an- * gels, _|prai- ses|sing, In|whose great|strength _ his|pow’r is|shown.|
w: his, _ this _|tri- bute|pay, Who|still what|he _ or-|dains ful-|fil.|
"^Notes: The source has the order of staves Tenore - Alto - Canto - Basso, with the alto part printed in the treble clef anoctave above sounding pitch, and with additional notes added between the air and bass (doubling the inner parts) toform a keyboard accompaniment. These notes and the figuring of the bass part have been omitted from the present edition,and the right hand of the keyboard part has been editorially split into two treble lines in the symphonies. The first verse onlyof the text is underlaid in the source: two subsequent verses have been added here, as indicated by the title of the piece." F,4 | %35
w: |
w: |
w: |
 F,12 | F,4 A,,4 B,,4 | C,8 C,4 | F,8 |] %39
w: ||||
w: ||||
w: ||||

